X: 16943
T: Hawk Polka, The
R: barndance
M: 4/4
K: Dmajor
|:F>G|A2 (3ABA F2 A2|d2 A2 f>ed>c|B2 (3BcB G2 B2|e>fg>f e>dc>B|
A2 (3ABA F2 (3ABA|d2 A>d f2 d2|c2 B>c g>AB>c|(3efe d2 d2:|
|:g2|f2 g>a b>a^g>b|a2 A2 d2 f2|e2 f>g g>ce>c|d>cd>e f>dA>d|
f>ga>b b2 ^g>b|a2 A>d f2 a2|e>Ae>f g>AB>c|(3efe d2 d2:|
|:(3EFG|A>af>d A>FD>F|A>af>d A2 F>G|A2 A>G E>^DE>G|B2 A>G F>^EF>G|
(3AAA f>d A2 D>F|(3AAA f>d A>Bc>d|(3BBB g>e c2 B>c|(3efe d2 d2:|

